X:1
T:Though Philomela lost her love - Morley
T:James Gibb editions
T:#
%%score { 1 | 2 } 3
L:1/8
Q:1/4=140
M:3/4
K:C
V:1 treble nm="Soprano I" snm="S"
V:2 treble 
V:3 treble-8 nm="Tenor" snm="T"
V:1
!f!"^Though Philomela lost her love" d2 d2 d2 | d4 d2 | e4 e2 | d4 B2 | c4 d2 | e4 A2 | c2 B4 | %7
w: Though Phil- o-|me- la|lost her|love, Fresh|notes she|warb- leth|yeas a-|
 A6 |"^Thomas Morley \n(1557-1603)" e6 | d6 | f6 | e6 | g2 ^f2 e2 | d4 c2 | B3 c d2 | e4 e2 | %16
w: gain.|Fa|la|la|la,|fa la la|la, fa|la la la|la, fa|
 d3 c B2 | A3 G A2 | G6- | G6 |!p! d2 d2 d2 | d4 d2 | e4 e2 | d4 B2 | c4 d2 | e4 A2 | c2 B4 | A6 | %28
w: la la la|la la la|la.||Though Phil- o-|me- la|lost her|love, Fresh|notes she|warb- leth|yeas a-|gain.|
"^cresc." e6 | d6 | f6 | e6 | g2 ^f2 e2 | d4 c2 | B3 c d2 | e4 e2 | d3 c B2 | A3 G A2 | G6- | G6 | %40
w: Fa|la|la|la,|fa la la|la, fa|la~ la la|la, fa|la la la|la la la|la.||
"^::      -    ?"!ff! d2 d2 d2 | e4 d2 | c4 B2 | A4 d2 | ^c3 d e2 | d2 d2 ^c2 | d6- | d6 | %48
w: He is a|fool that|lov- ers|prove, And|leaves to sing|to live in|pain.||
!p! d2 dd e2 | c2 cc d2 | B2 BB c2 | A2 AA B2 | G2 GG A2 | ^F2 D2 d2 | d6 | d6 | d4 B2 | A3 G A2 | %58
w: Fa la la la|la la la la|la la la la|la la la la|la la la la|la la, fa|la|la|la la|la la la|
 G6- | G6 |"^::      -    ?"!mp! d2 d2 d2 | e4 d2 | c4 B2 | A4 d2 | ^c3 d e2 | d2 d2 ^c2 | d6- | %67
w: la.||He is a|fool that|lov- ers|prove, And|leaves to sing|to live in|pain.|
 d6 |!p! d2 dd e2 | c2 cc d2 | B2 BB c2 | A2 AA B2 | G2 GG A2 | ^F2 D2 d2 |"^cresc." d6 | d6 | %76
w: |Fa la la la|la la la la|la la la la|la la la la|la la la la|la la, fa|la|la|
 d4 B2 | A3 G A2 |!f! G6- | !fermata!G6 |] %80
w: la la|la la la|la.||
V:2
!f! B2 B2 B2 | B4 B2 | c4 c2 | B4 G2 | E4 A2 | ^G3 (E^FG) | A4 ^G2 | A6 | G6 | G3 A B2 | A4 A2 | %11
w: Though Phil- o-|me- la|lost her|love, Fresh|notes she|warb- leth * *|yeas a-|gain.|Fa|la la la|la, fa|
 A3 B c2 | B4 c2 | A6 | d3 c B2 | c2 G2 G2 | G4 G2 | ^F3 G F2 | G6- | G6 |!p! B2 B2 B2 | B4 B2 | %22
w: la la la|la la|la,|fa la la|la la, fa|la la|la la la|la.||Though Phil- o-|me- la|
 c4 c2 | B4 G2 | E4 A2 | ^G3 (E^FG) | A4 ^G2 | A6 |"^cresc." G6 | G3 A B2 | A4 A2 | A3 B c2 | %32
w: lost her|love, Fresh|notes she|warb- leth * *|yeas a-|gain.|Fa|la la la|la, fa|la la la|
 B4 c2 | A6 | d3 c B2 | c2 G2 G2 | G4 G2 | ^F3 G F2 | G6- | G6 |!ff! B2 A2 B2 | c4 B2 | A4 G2 | %43
w: la~ la|la,|fa la la|la la, fa|la la|la la la|la.||He is a|fool that|lov- ers|
 ^F4 =F2 | E3 G E2 | F2 E2 E2 | ^F6- | F6 |!p! B2 BB c2 | A2 AA ^F2 | G2 GG A2 | ^F2 FF G2 | %52
w: prove, And|leaves to sing|to live in|pain.||Fa la la la|la la la la|la la la la|la la la la|
 E2 EE C2 | D2 ^F2 B2 | A4 G2 | ^F3 G A2 | B2 G2 G2 | ^F3 G F2 | G6- | G6 |!mp! B2 A2 B2 | c4 B2 | %62
w: la la la la,|fa la la|la, fa|la la la|la la, fa|la la la|la.||He is a|fool that|
 A4 G2 | ^F4 =F2 | E3 G E2 | F2 E2 E2 | ^F6- | F6 |!p! B2 BB c2 | A2 AA ^F2 | G2 GG A2 | %71
w: lov- ers|prove, And|leaves to sing|to live in|pain.||Fa la la la|la la la la|la la la la|
 ^F2 FF G2 | E2 EE C2 | D2 ^F2 B2 |"^cresc." A4 G2 | ^F3 G A2 | B2 G2 G2 | ^F3 G F2 |!f! G6- | %79
w: la la la la|la la la la,|fa la la|la, fa|la la la|la la, fa|la la la|la.|
 !fermata!G6 |] %80
w: |
V:3
!f! g2 g2 g2 | g4 g2 | c4 c2 | g4 g2 | c4 f2 | e4 d2 | A2 e4 | A6 | c6 | B3 A G2 | d4 d2 | %11
w: Though Phil- o-|me- la|lost her|love, Fresh|notes she|warb- leth|yeas a-|gain.|Fa|la la la|la, fa|
 c3 B A2 | e6 | ^f6 | g6 | c4 c2 | B3 A G2 | d4 d2 | G6- | G6 |!p! g2 g2 g2 | g4 g2 | c4 c2 | %23
w: la la la|la,|fa|la|la, fa|la la la|la la|la.||Though Phil- o-|me- la|lost her|
 g4 g2 | c4 f2 | e4 d2 | A2 e4 | A6 |"^cresc." c6 | B3 A G2 | d4 d2 | c3 B A2 | e6 | ^f6 | g6 | %35
w: love, Fresh|notes she|warb- leth|yeas a-|gain.|Fa|la la la|la, fa|la la la|la,|fa|la|
 c4 c2 | B3 A G2 | d4 d2 | G6- | G6 |!ff! g2 ^f2 g2 | c4 d2 | f4 g2 | d4 d2 | A3 B ^c2 | d2 A2 A2 | %46
w: la, fa|la la la|la la|la.||He is a|fool that|lov- ers|prove, And|leaves to sing|to live in|
 d6- | d6 |!p! g2 gg c2 | f2 ff d2 | e2 ee A2 | d2 dd G2 | c2 cc A2 | d4 G2 | ^F4 G2 | d3 e ^f2 | %56
w: pain.||Fa la la la|la la la la|la la la la|la la la la|la la la la|la, fa|la la|la la la|
 g6 | d6 | G6- | G6 |!mp! g2 ^f2 g2 | c4 d2 | f4 g2 | d4 d2 | A3 B ^c2 | d2 A2 A2 | d6- | d6 | %68
w: la|la|la.||He is a|fool that|lov- ers|prove, And|leaves to sing|to live in|pain.||
!p! g2 gg c2 | f2 ff d2 | e2 ee A2 | d2 dd G2 | c2 cc A2 | d4 G2 |"^cresc." ^F4 G2 | d3 e ^f2 | %76
w: Fa la la la|la la la la|la la la la|la la la la|la la la la|la, fa|la la|la la la|
 g6 | d6 |!f! G6- | !fermata!G6 |] %80
w: la|la|la.||

